ICONS/component-icons/svg/splitview.svg

<?xml version="1.0" encoding="UTF-8"?><svg id="widgets" xmlns="http://www.w3.org/2000/svg" width="24" height="24" viewBox="0 0 24 24"><path id="splitvew" d="M0,19H7l-2,2H0v-2Zm0-2H5l2-2H0v2Zm0-4H5l2-2H0v2Zm0-4H5l2-2H0v2ZM0,5H5l2-2H0v2ZM24,3V21H9V3h15Zm-2,16V5H11v14h11Z"/></svg>

<?xml version="1.0" encoding="utf-8"?>
<!-- Generator: Adobe Illustrator 24.2.3, SVG Export Plug-In . SVG Version: 6.00 Build 0)  -->
<svg version="1.1" id="Layer_1" xmlns="http://www.w3.org/2000/svg" xmlns:xlink="http://www.w3.org/1999/xlink" x="0px" y="0px"
	 width="24px" height="24px" viewBox="0 0 24 24" enable-background="new 0 0 24 24" xml:space="preserve">
<path d="M0,13h5l2-2H0V13z M0,17h5l2-2H0V17z M0,21h5l2-2H0V21z M9,3v18h15V3H9z M22,19H11V5h11V19z M0,5h5l2-2H0V5z M0,9h5l2-2H0V9
	z"/>
</svg>
